X:1
T:The Dog's Meeting
M:4/4
L:1/4
K:F
 A| A A B A| A2 G F| F d c B| A3| B| c f f e| e2 d c| B c A F| G3|\
 G| A B c d| d3/2 d/2 c f| f3/2 e/2d/2 d/2 A| B3| G| A A B A| A2 G F|\
 F G F E| F3||
